X: 145
T: Wuyun dali Ogjuntaraj                              (Name)
%%abc-version 2.0
%%abcx-abcm2ps-target-version 5.9.1 (29 Sep 2008)
%%abc-creator hum2abc beta
%%abcx-conversion-date 2013/10/02 07:44:27
%%abc-edited-by Helmut Schaffrath
%%humdrum-veritas 2587177925
%%humdrum-veritas-data 3246029574
%%continueall 1
%%barnumbers 0
L: 1/8
M: 2/4
K: C
D D D G, [I:setbarnb 1]| 
G2E G | 
D4 | 
D D D G, | 
G2E G | 
D4 | 
D2D2 | 
G2A2 | 
C2D2 | 
A, G,E,2 | 
G,G,2D | 
D C A, D | 
G,4 |]  



